src/lib/packages/icons/src/assets/filled/spotify.svg

<svg width="24" height="24" viewBox="0 0 24 24" fill="none" xmlns="http://www.w3.org/2000/svg">
<path d="M12 2C6.48 2 2 6.48 2 12C2 17.52 6.48 22 12 22C17.52 22 22 17.52 22 12C22 6.48 17.52 2 12 2ZM16.06 16.71C15.89 16.71 15.79 16.66 15.63 16.56C13.11 15.04 10.19 14.98 7.29999 15.57C7.13999 15.61 6.94001 15.67 6.82001 15.67C6.43001 15.67 6.17999 15.36 6.17999 15.03C6.17999 14.61 6.43001 14.42 6.73001 14.35C10.03 13.62 13.41 13.68 16.29 15.41C16.54 15.57 16.68 15.71 16.68 16.08C16.68 16.45 16.39 16.7 16.07 16.7L16.06 16.71ZM17.14 14.06C16.93 14.06 16.79 13.97 16.64 13.89C14.12 12.4 10.36 11.8 7.01999 12.7C6.82999 12.75 6.72001 12.8 6.54001 12.8C6.11001 12.8 5.76001 12.45 5.76001 12.02C5.76001 11.59 5.97 11.3 6.38 11.19C7.5 10.88 8.65001 10.64 10.32 10.64C12.94 10.64 15.47 11.29 17.46 12.47C17.79 12.66 17.92 12.91 17.92 13.26C17.92 13.7 17.58 14.05 17.14 14.05V14.06ZM18.39 10.99C18.18 10.99 18.05 10.94 17.87 10.83C15 9.12 9.87001 8.71 6.54001 9.63C6.39001 9.67 6.20999 9.73 6.01999 9.73C5.48999 9.73 5.07999 9.31 5.07999 8.78C5.07999 8.25 5.42 7.92001 5.78 7.82001C7.2 7.40001 8.78999 7.21001 10.52 7.21001C13.46 7.21001 16.55 7.82 18.8 9.14C19.11 9.32 19.32 9.57 19.32 10.05C19.32 10.6 18.88 10.99 18.38 10.99H18.39Z" fill="currentColor"/>
</svg>

<svg xmlns="http://www.w3.org/2000/svg" width="24" height="24" fill="none"><path fill="currentColor" d="M12 2C6.48 2 2 6.48 2 12s4.48 10 10 10 10-4.48 10-10S17.52 2 12 2Zm4.06 14.71c-.17 0-.27-.05-.43-.15-2.52-1.52-5.44-1.58-8.33-.99-.16.04-.36.1-.48.1-.39 0-.64-.31-.64-.64 0-.42.25-.61.55-.68 3.3-.73 6.68-.67 9.56 1.06.25.16.39.3.39.67 0 .37-.29.62-.61.62l-.01.01Zm1.08-2.65c-.21 0-.35-.09-.5-.17-2.52-1.49-6.28-2.09-9.62-1.19-.19.05-.3.1-.48.1-.43 0-.78-.35-.78-.78 0-.43.21-.72.62-.83 1.12-.31 2.27-.55 3.94-.55 2.62 0 5.15.65 7.14 1.83.33.19.46.44.46.79 0 .44-.34.79-.78.79v.01Zm1.25-3.07c-.21 0-.34-.05-.52-.16-2.87-1.71-8-2.12-11.33-1.2-.15.04-.33.1-.52.1-.53 0-.94-.42-.94-.95s.34-.86.7-.96c1.42-.42 3.01-.61 4.74-.61 2.94 0 6.03.61 8.28 1.93.31.18.52.43.52.91 0 .55-.44.94-.94.94h.01Z"/></svg>
